X: 1407
T: An T-Eas
R: hornpipe
M: 4/4
K: Amajor
|:ed|cdec Aaga|fgaf e^dfe|dBed cAdc|Be^df gfe=d|
cdec Aaga|fgaf e^dfe|dBed cAdc|BGcB A2:|
GA|Be~ee cede|^defa gefg|agfe ^defg|fedc BAGA|
Be~ee cede|^defa gefg|agfe ^defa|gfe^d e/f/e^de|
Be~ee cede|^defa gefg|agfe ^defg|fedc BAGA|
Be~ee cede|^defa gefg|agfe ^defa|gfe^d e2z2|

